X:114
T: Die Schlangenkoechin
N: Q0079E
O: Mitteleuropa, Deutschland (DDR) , Brandenburg
N: Zweite, vierte und fuenfte Zeile = Refrain.
R: Ballade, Mord; Reigen - Tanz, antiphonal
M: 2/4
L: 1/16
K: D
A,2 | D2D2F2F2 | A2A2A2
A2 | B2B2d2B2 | A4z2
F2 | G3AG2E2 | F3AF2
D2 | E3FE2D2 | A4F2
D2 | A2G2F2AF | E4z2

